X: 1
T: Thomas Burk
B: A COLECTION of the most Celebrated Irish Tunes4a
M: C|
L: 1/8
K: G
dc |\
B2AG Bcd2 | D2(3GAG G2c2 | BcdB edcB | dcBd c2e2 | d2g2 (gf)(ed) |
(efg)e (f/g/a) (gf) | g6 d2 | gab2 b2ab | gagf e2fg | abag fgfe |
d6 (ef) | g2G2 G2(ed) | e2E2 E2e2 | (ed)(cB) (cB)(AG) | G6 :|
|: G2 |\
DEDC B,CDB, | G2D2 D2(EF) | GAGF EFGE | AGFE D2(GA) | B2(Bc) (BA)(GF) |
E2g2 f2(ef) | eged BABd | e6 (fe/f/) | g2(gf) e2ef | (ga)(fg) e2 (d/e/f) |
(gf)(ed) (ed)(cB) | A6 (A/B/c) | B2(B/c/d) (ef)g2 | (fg)(af) (gf)gd | (ed)(cB) (cB)(AG) | G6 :|
